!!!OTL: Taeublein - Weise.
!!!ARE: Europa, Mitteleuropa, Deutschland
!!!SCT: A0597
!!!TXL: @@DE, (@@LAT)
!!!YEM: Copyright 1995, estate of Helmut Schaffrath.
**kern	**text
*M4/2	*
*met(c|)	*
*clefC3	*
*k[]	*
*C:ion	*
=1	=1
!LO:TX:a:t=jon.	!
1ryy	.
2ryy	.
{2c	Es
=2	=2
2c	flog
2d	ein
2c	Täublein
2B	.
=3	=3
1A	wei-
2G}	-ße
{2G	von
=4	=4
1c	Him-
2d	-mel
2f	her-
=5	=5
1e	-ab,
2r}	.
{2c	in
=6	=6
2e	En-
2e	-ge-
2f	-li-
2f	-ſchem
=7	=7
1g	Kleyde
2e}	.
{2g	ʒu
=8	=8
2f	ei-
2e	-ner
2d	Jung-
2d	-frau
=9	=9
1c	ʒart,
2r}	.
{2e	er
=10	=10
1f	grüſ-
1e	-ſet
=11	=11
1d	ſie
1c	gar
=12	=12
2A	hüpſch
2c/	und
2A	ſäu-
2G	-ber-
=13	=13
1F	-lich,
2r}	.
{2F	ihr
=14	=14
2c	Seel
2d	ward
2e	hoch
2g	ge-
=15	=15
1f	-ʒie-
2e}	-ret,
{2d	ge-
=16	=16
2c/	-ſeg-
2A	-net
2B	ward
2c/	jhr
=17	=17
4.d	Leib.
8e	.
2f	.
2e	.
2d}	.
=18	=18
{4c/	Ky-
4c/	-rie
2A	e-
*lig	*
2B	-lei-
2c/	.
*Xlig	*
=19	=19
!LO:TX:a:t=*	!
0c/ll}	-ſon.
==	==
!!!GTL: Geistliche Volkslieder
!!!AGN: Romanze, Ballade, Lied , religioeses Lied
!! Beutner 1602 No. 14.
!!!ONB: ESAC (Essen Associative Code) Database: ALTDEU
!!!AMT: simple quadruple
!!!AIN: vox
!!!EED: Helmut Schaffrath
!!!EEV: 1.0
!!@@COMMENT:"*Als Finalnote bei Beuttner a, was wohl ein Druckfehler ist."
!!@@END:
!!!RDF**kern: l = terminal long
!!!AMD: Ionian
!!!URL-scan: https://rosdok.uni-rostock.de/mcrviewer/recordIdentifier/rosdok_ppn738218359/iview2/phys_0778.iview2?x=-1038.517049950175&y=1741.8267138469964&scale=0.35264164471254245&rotation=0&layout=singlePageLayout&logicalDiv=log_0021
!!!ENC: Anna Maria Matuszewska
!!!EEV: 2024/22/03
*-	*-
